X: 41315
T: Tunes With Trevor
R: reel
M: 4/4
K: Gmajor
B,C|:D2GD BGFG|ABce g2fe|dgfg edcB|Aeec BGAF|
G2DG BGFG|ABce g2ag|fdde dcGA|1 BAGF G2B,C:|2 BAGF G2GA||
B2dB gBdB|(3BBB dB gBdB|c2dc gcdc|d2Ad afdc|
B2dB gBdB|(3BBB dB gBdB|c2(3edc BGdB|ABAF D2c2|
B2dB gBdB|(3BBB dB gBdB|c2dc gcdc|d2Ad afdf|
~g2fg afdd|cedc dBGg|afge dcGA|BAGF G2B,C||

